X:1
T:Title
%%score [ 1 2 3 4 ]
L:1/8
Q:1/4=85
M:4/4
K:Eb
V:1 treble nm="s" snm="s"
V:2 treble nm="a" snm="a"
V:3 treble-8 nm="t" snm="t"
V:4 bass nm="b" snm="b"
V:1
!pp! E3 F G2 A2 | B2 B2 c2 c2 | c3 c e2 dc | G3 F F4 | A2 A2 c2 B2 | B2 ed d2 c2 | f2 cd e2 d2 | %7
w: Giv, o Gud, mig|ljus och styr- ka|Att i tron Dig *|hål- la kär,|Att med he- ligt|hjär- ta * dyr- ka|Dig, som * Gud och|
 c2 c2 d4 |!f! !>!e2 GA B2 G2 | F3 G G4 |"^dolce" z8 |!p! z4 _c2 BA | e2 _d_c B2 A2 | _d4 _G4 | %14
w: Fa- der är,|Dig, som * Gud och|Fa- der är.||Låt mig, o,|låt mid din kär- lek|skå- da|
 _c2 BA B2 B2 |!<(! c2 c2!<)!!mf! d4 |!pp! G2 GA B2 B2 | E2 EF A2 A2 | =A3 A (A2 B2) | %19
w: Lik din * sol var|mor- gon ny|Och i * all min|nöd och * vå- da|Till din makt, *|
 =B3 B (B2 c)e | e2 dB c2 A2 |"^rit." (G4 F4) |!p! E3 F G2 A2 | B2 B2 c2 c2 | c3 c e2 dc | %25
w: till din makt * med|gläd- je, med gläd- je|fly! *|Giv, o Gud, mig|ljus och styr- ka|Att i tron Dig *|
 G3 F F4 |"^cresc." A2 A2 c2 B2 | B2 ed d2 c2 | c3 c e2 G2 | !>!B2 !>!B2 !>!E4 |] %30
w: hål- la kär,|Att med he- ligt|hjär- ta * dyr- ka|Dig, som Gud och|Fa- der är.|
V:2
!pp! E2 F2 E2 E2 | F2 F2 A2 A2 | B3 B A2 A2 | E2 E2 E2 D2 | F2 C2 A2 GF | F2 EB B2 =AG | %6
w: Giv, o Gud, mig|ljus och styr- ka|Att i tron Dig|hå- la kär, *|Att med he- ligt *|hjär- ta * dyr- ka *|
 F2 F2 G2 G2 | G2 =A2 A4 |!f! !>!G2 E2 D2 E2 | E2 D2 E4 | z8 |!p! _F2 E_D E2 E2 | E4 __E4 | %13
w: Dig, som Gud och|Fa- der är,|Dig, som Gud och|Fa- der är.||Låt mig * nöjd din|kär- lek|
 _F4 F4 | E2 E2 E2 E2 | E2 E2!mf! G4 |!pp! E2 E2 F2 F2 | E2 E2 E2 E2 | E3 E E4 | E3 E E3 =A | %20
w: skå- da|Lik din sol var|mor- gon ny|Och i all min|nöd och vå- da|Till din makt,|till din makt med|
 A2 AA A2 E2 | (D4 C2 D2) |!p! z2 E2 E2 E2 | F2 F2 A2 A2 | B3 B A2 A2 | E2 E2 (E2 D2) | %26
w: gläd- je, med gläd- je|fly! * *|Giv, Gud, mig|ljus och styr- ka|Att i tron Dig|hål- la kär, *|
 F2 C2 A2 GF | F2 EB B2 =AG | ^F3 F G2 E2 | !>!D2 !>!D2 !>!B,4 |] %30
w: Att med he- ligt *|hjär- ta * dyr- ka *|Dig, som Gud och|Fa- der är.|
V:3
!pp! e2 d2 e2 e2 | e2 d2 e2 e2 | =e3 e _ec de | c2 c2 B4 | c2 fe e2 d2 | d2 gf f2 =e2 | %6
w: Giv, o Gud, mig|ljus och styr- ka|Att i tron * Dig *|hål- la kär,|Att med * he- ligt|hjär- ta * dyr- ka|
 c2 c2 B2 e2 | e2 e2 d4 |!f! !>!d2 c2 B2 B2 | c2 B2 B4 |!p! z4 _c2 BA | A4- A2 _c2 | _c4 c4 | %13
w: Dig, som Gud och|Fa- der är,|Dig, som Gud och|Fa- der är.|Låt mig *|nöjd * din|kär- lek|
 _c2 A2 B4 | _c2 _GF =G2 G2 | G2 F!mf!c c2 =B2 |!pp! c2 e2 e2 d2 | _c2 c2 c2 c2 | c3 c c2 B2 | %19
w: skå- * da|Lik din * sol var|mor- gon * ny *|Och i all min|nöd och vå- da|Till din makt, *|
 =A3 A A3 c | c2 Bd e2 c2 | (B4 A4) |!p! e2 d2 e2 e2 | e2 d2 e2 e2 | =e3 e _ec de | c2 c2 B4 | %26
w: till din makt med|gläd- je, med gläd- je|fly! *|Giv, o Gud, mig|ljus och styr- ka|Att i tron * Dig *|hål- la kär,|
 c2 fe e2 d2 | d2 gf f2 =e2 | e3 e e2 B2 | !>!G2 !>!F2 !>!G4 |] %30
w: Att med * he- ligt|hjär- ta * dyr- ka|Dig, som Gud och|Fa- der är.|
V:4
!pp! z4 C3 _C | B,2 B,2 A,2 A,2 | A,2 G,2 F,2 F,2 | A,2 =A,2 B,4 | F,2 F,2 B,,2 B,A, | %5
w: Gud, mig|ljus och styr- ka|Att i tron Dig|hål- la kär,|Att med he- ligt *|
 G,2 G,2 C,2 CB, | =A,2 _A,2 G,2 E,2 | F,2 F,2 ^F,4 |!f! !>!C,2 C,2 G,,2 C,2 | A,,2 B,,2 E,4 | %10
w: hjär- ta dyr- ka *|Dig, som Gud och|Fa- der är,|Dig, som Gud och|Fa- der är.|
!p! E,2 _D,_C, A,,2 B,,2 | _D,2 _F,2 =F,2 F,2 | _G,4 G,4 | _G,,4 G,,4 | A,,2 _C,2 B,,2 B,,2 | %15
w: Låt mig * nöjd din|låt mig nöjd din|kär- lek|skå- da|Lik din sol var|
 A,,2 A,,2!mf! G,,2 G,2 |!pp! C2 _C2 B,2 B,2 | B,2 A,2 F,2 F,2 | ^F,3 F, G,4 | _G,3 G, F,3 F, | %20
w: mor- gon ny *|Och i all min|nöd och vå- da|Till din makt,|till din makt med|
 B,,2 B,,B,, F,2 F,2 | B,,8 |!p! z4 C3 _C | B,2 B,2 A,2 A,2 | A,2 G,2 F,2 F,2 | A,2 =A,2 B,4 | %26
w: gläd- je, med gläd- je|fly!|Giv mig|ljus och styr- ka|Att i tron Dig|hål- la kär,|
 F,2 F,2 B,,2 B,A, | G,2 G,2 C,2 CA, | =A,3 A, B,2 B,2 | !>!B,,2 !>!B,,2 !>!E,4 |] %30
w: Att med he- ligt *|hjär- ta dyr- ka *|Dig, som Gud och|Fa- der är.|

